assets/security-grey/SecurityGrey5.svg

<svg xmlns="http://www.w3.org/2000/svg" data-name="Layer 3" viewBox="0 0 128 128"><path d="M25.046 83.1h30.6l-4.565 11.629h-.088a7.571 7.571 0 00-7.562 7.562 1.611 1.611 0 001.61 1.61h37.918a1.611 1.611 0 001.61-1.61 7.559 7.559 0 00-5.763-7.322L73.718 83.1h29.236a1.611 1.611 0 001.61-1.61V25.709a1.611 1.611 0 00-1.61-1.61H25.046a1.611 1.611 0 00-1.61 1.61v55.778a1.611 1.611 0 001.61 1.613zm55.993 17.58H46.961a4.348 4.348 0 014.032-2.73h26.014a4.348 4.348 0 014.032 2.73zM75.2 94.729H54.541L59.112 83.1h11.1zm-3.929-14.852H26.657v-5.722h74.686v5.721zm30.072-52.557v43.614H26.657V27.32z"/><path d="M64.91 63.851a14.335 14.335 0 10-14.335-14.336A14.352 14.352 0 0064.91 63.851zm0-25.449a11.094 11.094 0 018.643 4.141 1.529 1.529 0 00-.183.1L62.675 51.72l-3.606-5.247a1.611 1.611 0 10-2.655 1.827l4.617 6.717a1.61 1.61 0 002.369.315l11.795-10.014A11.111 11.111 0 1164.91 38.4z"/></svg>

<svg id="Layer_3" data-name="Layer 3" xmlns="http://www.w3.org/2000/svg" viewBox="0 0 128 128"><title>Artboard 101</title><path d="M25.046,83.1h30.6L51.081,94.729h-.088a7.571,7.571,0,0,0-7.562,7.562,1.611,1.611,0,0,0,1.61,1.61H82.959a1.611,1.611,0,0,0,1.61-1.61,7.559,7.559,0,0,0-5.763-7.322L73.718,83.1h29.236a1.611,1.611,0,0,0,1.61-1.61V25.709a1.611,1.611,0,0,0-1.61-1.61H25.046a1.611,1.611,0,0,0-1.61,1.61V81.487A1.611,1.611,0,0,0,25.046,83.1ZM81.039,100.68H46.961a4.348,4.348,0,0,1,4.032-2.73H77.007A4.348,4.348,0,0,1,81.039,100.68ZM75.2,94.729H54.541L59.112,83.1h11.1ZM71.271,79.877H26.657V74.155h74.686v5.721ZM101.343,27.32V70.934H26.657V27.32Z" style="fill:#231f20"/><path d="M64.91,63.851A14.335,14.335,0,1,0,50.575,49.515,14.352,14.352,0,0,0,64.91,63.851Zm0-25.449a11.094,11.094,0,0,1,8.643,4.141,1.529,1.529,0,0,0-.183.1L62.675,51.72l-3.606-5.247A1.611,1.611,0,1,0,56.414,48.3l4.617,6.717a1.61,1.61,0,0,0,2.369.315L75.195,45.318A11.111,11.111,0,1,1,64.91,38.4Z" style="fill:#231f20"/></svg>
